packages/ui/assets/svg/partner_polygon.svg

<svg class="partner-size" width="85" height="19" viewBox="0 0 85 19" fill="none" xmlns="http://www.w3.org/2000/svg">
<g id="partner_polygon">
<path id="Vector" d="M16.125 5.64451C15.9386 5.53712 15.7274 5.4806 15.5123 5.4806C15.2972 5.4806 15.0859 5.53712 14.8996 5.64451L12.0883 7.31923L10.1781 8.41146L7.36677 10.0862C7.18042 10.1936 6.96913 10.2501 6.75407 10.2501C6.539 10.2501 6.32771 10.1936 6.14136 10.0862L3.90677 8.77557C3.72339 8.66607 3.57092 8.51168 3.46373 8.32696C3.35653 8.14223 3.29814 7.93325 3.29405 7.71972V5.1348C3.29049 4.91972 3.34566 4.70775 3.45362 4.52171C3.56159 4.33566 3.71826 4.18259 3.90677 4.07898L6.10532 2.80471C6.29167 2.69733 6.50297 2.6408 6.71804 2.6408C6.93312 2.6408 7.14442 2.69733 7.33076 2.80471L9.52932 4.07898C9.71268 4.18848 9.86514 4.34286 9.97233 4.52758C10.0795 4.7123 10.1379 4.92127 10.142 5.1348V6.80955L12.0522 5.68091V4.00614C12.0558 3.79107 12.0006 3.5791 11.8927 3.39305C11.7847 3.20701 11.628 3.05394 11.4395 2.95032L7.36677 0.547454C7.18043 0.440069 6.96913 0.383545 6.75407 0.383545C6.539 0.383545 6.3277 0.440069 6.14136 0.547454L1.99653 2.95036C1.80804 3.05397 1.65137 3.20703 1.54341 3.39307C1.43544 3.57911 1.38027 3.79107 1.38383 4.00614V8.84836C1.38027 9.06343 1.43544 9.2754 1.54341 9.46144C1.65137 9.64748 1.80804 9.80054 1.99654 9.90415L6.14137 12.307C6.32771 12.4144 6.539 12.471 6.75408 12.471C6.96915 12.471 7.18044 12.4144 7.36678 12.307L10.1781 10.6687L12.0883 9.54009L14.8996 7.90175C15.0859 7.79437 15.2972 7.73785 15.5123 7.73785C15.7274 7.73785 15.9387 7.79437 16.125 7.90175L18.3236 9.17604C18.5069 9.28553 18.6594 9.43991 18.7666 9.62463C18.8738 9.80934 18.9322 10.0183 18.9362 10.2318V12.8168C18.9398 13.0318 18.8846 13.2438 18.7767 13.4299C18.6687 13.6159 18.5121 13.769 18.3236 13.8726L16.125 15.1833C15.9387 15.2907 15.7274 15.3472 15.5123 15.3472C15.2972 15.3472 15.0859 15.2907 14.8996 15.1833L12.701 13.909C12.5176 13.7995 12.3652 13.6451 12.258 13.4604C12.1508 13.2757 12.0924 13.0667 12.0883 12.8532V11.1784L10.1781 12.307V13.9818C10.1745 14.1969 10.2297 14.4089 10.3376 14.5949C10.4456 14.7809 10.6023 14.934 10.7908 15.0376L14.9356 17.4406C15.1219 17.5479 15.3332 17.6045 15.5483 17.6045C15.7634 17.6045 15.9747 17.5479 16.161 17.4406L20.3058 15.0376C20.4892 14.9281 20.6417 14.7738 20.7489 14.589C20.8561 14.4043 20.9145 14.1954 20.9186 13.9818V9.1396C20.9221 8.92453 20.867 8.71256 20.759 8.52652C20.651 8.34048 20.4943 8.18742 20.3058 8.08381L16.125 5.64451Z" fill="#7B3FE4"></path>
<path class="fill" d="M28.5297 16.0537V12.0338C28.8053 12.3271 29.1423 12.5558 29.5166 12.7038C29.8908 12.8517 30.2932 12.9151 30.6948 12.8894C33.0553 12.8894 34.6506 11.2265 34.6506 8.69185C34.6506 6.15717 33.1855 4.49428 30.8902 4.49428C30.4448 4.46906 29.9996 4.54783 29.5899 4.72436C29.1803 4.90089 28.8173 5.17034 28.5297 5.51139V4.62344H26.267V16.0537H28.5297ZM30.4181 10.9521C29.1971 10.9521 28.3995 10.048 28.3995 8.69185C28.3995 7.31957 29.1971 6.41548 30.4181 6.41548C31.6064 6.41548 32.4204 7.31957 32.4204 8.69185C32.4204 10.048 31.6064 10.9521 30.4181 10.9521Z" fill="black"></path>
<path class="fill" d="M39.7888 12.8894C40.6134 12.8638 41.4122 12.5958 42.0855 12.1189C42.7588 11.642 43.2767 10.9774 43.5745 10.208C43.8724 9.43862 43.937 8.59853 43.7604 7.79263C43.5837 6.98672 43.1736 6.2507 42.5812 5.67646C41.9888 5.10221 41.2404 4.71517 40.4294 4.56367C39.6183 4.41216 38.7807 4.5029 38.0209 4.82454C37.2612 5.14619 36.613 5.6845 36.1573 6.37228C35.7016 7.06005 35.4586 7.86681 35.4586 8.69185C35.4477 9.2574 35.5533 9.81915 35.7688 10.3421C35.9843 10.8651 36.3051 11.3382 36.7112 11.7319C37.1174 12.1256 37.6002 12.4316 38.1296 12.6307C38.6591 12.8298 39.2238 12.9179 39.7888 12.8894ZM39.7888 10.9521C38.5678 10.9521 37.7376 10.0318 37.7376 8.69185C37.7376 7.33572 38.5678 6.41548 39.7888 6.41548C41.0097 6.41548 41.8399 7.33572 41.8399 8.69185C41.8399 10.0318 41.0097 10.9521 39.7888 10.9521Z" fill="black"></path>
<path class="fill" d="M47.7497 12.7603V1.08783H45.4869V12.7603H47.7497Z" fill="black"></path>
<path class="fill" d="M54.5516 4.62347L52.8423 9.87043L51.1167 4.62347H48.8052L51.7842 12.6957L50.5795 16.0538H52.7446L53.9005 12.728L56.8794 4.62347H54.5516Z" fill="black"></path>
<path class="fill" d="M63.2344 5.43068C62.9498 5.11713 62.5993 4.87054 62.208 4.70863C61.8167 4.54672 61.3944 4.47352 60.9715 4.4943C58.5783 4.4943 57.1296 6.15718 57.1296 8.69186C57.1296 11.2265 58.5783 12.8894 61.0043 12.8894C61.4269 12.915 61.8496 12.8423 62.2393 12.677C62.6291 12.5118 62.9752 12.2584 63.2506 11.9369V13.0024C63.2632 13.1666 63.242 13.3316 63.1881 13.4872C63.1342 13.6427 63.0489 13.7856 62.9374 13.9067C62.8259 14.0279 62.6907 14.1248 62.5402 14.1914C62.3896 14.2581 62.227 14.293 62.0623 14.294H58.2856V16.0537H62.4202C64.2763 16.0537 65.5135 14.9398 65.5135 13.2446V4.62345H63.2344V5.43068ZM61.3622 10.9521C60.1578 10.9521 59.3597 10.0641 59.3597 8.69186C59.3597 7.31958 60.1578 6.41549 61.3622 6.41549C62.5833 6.41549 63.3808 7.31958 63.3808 8.69186C63.3808 10.0641 62.5833 10.9521 61.3622 10.9521V10.9521Z" fill="black"></path>
<path class="fill" d="M71.2179 12.8894C72.0425 12.8638 72.8414 12.5959 73.5147 12.119C74.188 11.6422 74.7059 10.9776 75.0038 10.2082C75.3017 9.4388 75.3664 8.59871 75.1897 7.79278C75.0131 6.98686 74.603 6.25082 74.0106 5.67655C73.4182 5.10227 72.6698 4.71521 71.8588 4.56369C71.0478 4.41216 70.2101 4.50288 69.4503 4.82452C68.6905 5.14616 68.0423 5.68447 67.5866 6.37225C67.1309 7.06003 66.8879 7.8668 66.8879 8.69185C66.8771 9.25737 66.9827 9.81908 67.1982 10.342C67.4136 10.865 67.7344 11.338 68.1405 11.7317C68.5467 12.1254 69.0294 12.4314 69.5588 12.6305C70.0882 12.8297 70.6529 12.9178 71.2179 12.8894V12.8894ZM71.2179 10.9521C69.9968 10.9521 69.167 10.0318 69.167 8.69185C69.167 7.33572 69.9968 6.41548 71.2179 6.41548C72.4389 6.41548 73.2693 7.33572 73.2693 8.69185C73.2693 10.0318 72.4389 10.9521 71.2179 10.9521Z" fill="black"></path>
<path class="fill" d="M79.0646 12.7603V8.30438C79.048 8.07239 79.0796 7.83949 79.1573 7.62027C79.235 7.40105 79.3572 7.20026 79.5161 7.03048C79.6751 6.8607 79.8674 6.72561 80.0811 6.63367C80.2947 6.54173 80.525 6.49493 80.7576 6.4962C80.9756 6.49395 81.1917 6.53717 81.3921 6.62312C81.5924 6.70906 81.7727 6.83583 81.9213 6.99534C82.0699 7.15486 82.1837 7.3436 82.2553 7.54954C82.3269 7.75547 82.3547 7.97406 82.3371 8.19137V12.7603H84.6162V7.69089C84.6162 5.81813 83.4112 4.49428 81.5557 4.49428C81.066 4.46362 80.577 4.56415 80.1391 4.78551C79.7012 5.00687 79.3303 5.34104 79.0646 5.75355V4.62344H76.7861V12.7603H79.0646Z" fill="black"></path>
</g>
</svg>

<svg class="partner-size" width="85" height="19" viewBox="0 0 85 19" fill="none" xmlns="http://www.w3.org/2000/svg"><path d="M16.125 5.645a1.227 1.227 0 0 0-1.225 0l-2.812 1.674-1.91 1.092-2.811 1.675a1.227 1.227 0 0 1-1.226 0l-2.234-1.31a1.258 1.258 0 0 1-.613-1.056V5.135a1.183 1.183 0 0 1 .613-1.056l2.198-1.274a1.227 1.227 0 0 1 1.226 0l2.198 1.274a1.258 1.258 0 0 1 .613 1.056V6.81l1.91-1.13V4.007a1.183 1.183 0 0 0-.612-1.056L7.367.547a1.227 1.227 0 0 0-1.226 0L1.997 2.95a1.182 1.182 0 0 0-.613 1.056v4.842a1.182 1.182 0 0 0 .613 1.056l4.144 2.403a1.227 1.227 0 0 0 1.226 0l2.811-1.638 1.91-1.129L14.9 7.902a1.227 1.227 0 0 1 1.225 0l2.199 1.274a1.258 1.258 0 0 1 .612 1.056v2.585a1.183 1.183 0 0 1-.612 1.056l-2.199 1.31a1.227 1.227 0 0 1-1.225 0L12.7 13.91a1.258 1.258 0 0 1-.613-1.056v-1.675l-1.91 1.129v1.675a1.183 1.183 0 0 0 .613 1.056l4.145 2.403a1.228 1.228 0 0 0 1.225 0l4.145-2.403a1.257 1.257 0 0 0 .613-1.056V9.14a1.183 1.183 0 0 0-.613-1.056l-4.181-2.44Z" fill="#7B3FE4"/><path class="fill" d="M28.53 16.054v-4.02a2.733 2.733 0 0 0 2.165.855c2.36 0 3.956-1.662 3.956-4.197s-1.466-4.198-3.76-4.198a2.875 2.875 0 0 0-2.361 1.017v-.888h-2.263v11.43h2.263Zm1.888-5.102c-1.22 0-2.018-.904-2.018-2.26 0-1.372.797-2.277 2.018-2.277 1.188 0 2.002.905 2.002 2.277 0 1.356-.814 2.26-2.002 2.26ZM39.789 12.89a4.199 4.199 0 1 0-4.33-4.198 4.123 4.123 0 0 0 4.33 4.197Zm0-1.938c-1.221 0-2.051-.92-2.051-2.26 0-1.356.83-2.277 2.05-2.277 1.222 0 2.052.92 2.052 2.277 0 1.34-.83 2.26-2.051 2.26ZM47.75 12.76V1.088h-2.263V12.76h2.263ZM54.552 4.623l-1.71 5.247-1.725-5.247h-2.312l2.98 8.073-1.205 3.358h2.165l1.156-3.326 2.978-8.105h-2.327ZM63.234 5.43a2.866 2.866 0 0 0-2.263-.936c-2.393 0-3.841 1.663-3.841 4.198 0 2.534 1.448 4.197 3.874 4.197a2.738 2.738 0 0 0 2.247-.952v1.065a1.2 1.2 0 0 1-1.189 1.292h-3.776v1.76h4.134c1.856 0 3.093-1.114 3.093-2.81v-8.62h-2.279v.807Zm-1.872 5.522c-1.204 0-2.002-.888-2.002-2.26 0-1.372.798-2.277 2.002-2.277 1.221 0 2.019.905 2.019 2.277s-.798 2.26-2.019 2.26ZM71.218 12.89a4.2 4.2 0 1 0-4.33-4.198 4.124 4.124 0 0 0 4.33 4.197Zm0-1.938c-1.221 0-2.051-.92-2.051-2.26 0-1.356.83-2.277 2.05-2.277 1.222 0 2.052.92 2.052 2.277 0 1.34-.83 2.26-2.051 2.26ZM79.065 12.76V8.304a1.687 1.687 0 0 1 1.693-1.808 1.569 1.569 0 0 1 1.58 1.695v4.57h2.278V7.69c0-1.873-1.205-3.197-3.06-3.197a2.758 2.758 0 0 0-2.491 1.26v-1.13h-2.279v8.136h2.279Z" fill="#000"/></svg>
